X: 1
T:Morrison's Jig
C:Trad
R:Jiggity Jig Jig
M:6/8
K:EDor
Z:Everyone does this, but our favourite version is Alan Stivell's.
L:1/8
EEE BEB|EBE AFD|EEE BAB|dcB AFD|EEE BEB|EBE AFD|G2 G FGA|dAG FED:|
Bee fee|aee fee|Bee fee|a2g fed|Bee fee|aee fef|gfe d2A|BAG FED|
Bee fee|aee fee|Bee fee|faf def|g2g gfe|def g2d|edc d2A|BAG FED||
